X:1
T:Title
%%score 1 { 2 | 3 }
L:1/8
Q:1/4=120
M:3/4
K:Eb
V:1 treble nm="MusicXML Part"
V:2 treble nm="MusicXML Part"
V:3 bass 
V:1
"^Wiegenlied Op. 49, Nr.4  (1868)" z | z6 | z2 z2"^Guten Abend, gut' Nacht" GG | %3
w: ||Gu- ten|
w: ||(Gu- ten|
 B3"^Johannes Brahms (1833-1897)""^Des Knaben Wunderhorn (1808),\nGeorg Scherer (1849)" G G2 | %4
w: A- bend, gut'|
w: A- bend, gut'|
 B2 z2 (GB) | e2 d3 c | (c2 B2) (FG) | A2 F2 (FG) | A2 z2 (FA) | (dc) B2 d2 | e2 z2 EE | e4 cA | %12
w: Nacht, mit *|Ro- sen be-|dacht, * mit *|Näg- lein be *|steckt, schlupf *|un * ter die|Deck'. Mor- gen|früh, wenn Gott|
w: Nacht, von *|Eng- lein be-|wacht, * die *|zei- gen im *|Traum dir *|Christ * kind- leins|Baum. Schlaf nun|se- lig und|
 B4 GE | A2 B2 c2 | B4 EE | e4 cA | B4 GE | (A2 G2) F2 | E4 z :| %19
w: will, wirst du|wie- der ge-|weckt, mor- gen|früh wenn Gott|will, wirst du|wie- der ge-|weckt.|
w: süss, schau im|Traum 's Pa- ra-|dies, schlaf nun|se- lig und|süss, schau im|Traum 's Pa- ra-|dies.)|
V:2
 ([GB]- | [GB][EG] [GB]2 z) ([GB]- | [GB][EG] [GB]2 z) ([GB]- | [GB] [EG]2 B,2 [GB]- | %4
 [GB]) [EG]2 B,2 [GB]- | [GB] [eg]2 [eg]2 [eg]- | [eg] [da]2 ([Ad]2 ([GB]-) | %7
 [GB] [FA]2 [B,F]2) ([Ac]- | [Ac] [FA]2 [B,F]2) [Ac]- | ([Ac] [FA]2 [Ad]2 [Af]- | %10
 [Af] [Ge]2 [GB]2) ([E_de]- | [Ede][Ac]) [ce]3 [Ac] | ([GB][EG]) [GB]3 [EG] | %13
 ([DF][B,D][DF][A,C][DF][G,B,]) | [EG]4 z ([E_de]- | [Ede][Ac]) [ce]3 [Ac] | %16
 ([GB][EG]) [GB]3 [EG] | ([DF]B[EG]c[FA]d) | [GBe]4 z :| %19
V:3
 z | E,,2 (G,2 B,,2) | E,,2 (G,2 B,,2) | E,,2 (G,2 B,,2) | E,,2 (G,2 B,,2) | E,,2 (B,2 B,,2) | %6
 E,,2 (F,2 B,,2) | E,,2 (F,2 B,,2) | E,,2 (F,2 B,,2) | F,,2 (B,2 B,,2) | E,,2 (B,2 E,2) | %11
 E,,2 (A,2 A,,2) | E,,2 (G,2 B,,2) | E,,2 (F,2 B,,2) | E,,2 (G,2 B,,2) | E,,2 (A,2 A,,2) | %16
 E,,2 (G,2 B,,2) | E,,2 (B,2 B,,2) | E,,2 [B,,E,G,]2 z :| %19

